X:2201
T:In London streets I went astray 
C:Traditional
O:Isle of Man
N:"Not Manx" noted on MS 
Z:Clague collection
B:Kiaull Vannin #201 
L:1/4
M:2/4 
Q:70 
K:D 
A|F A|d d|f d|d A|B B|g f|f e|d d| 
e/e/ e/e/|e a|f f/e/|d d/e/|f f/e/|d d/c/|B B|A A/G/| 
F A|d2|B c/d/|e2|f f/g/|a g |f a|d|| 

